Numix-Circle/48x48/apps/liteide.svg

<?xml version="1.0" encoding="UTF-8" standalone="no"?>
<svg
   xmlns:dc="http://purl.org/dc/elements/1.1/"
   xmlns:cc="http://creativecommons.org/ns#"
   xmlns:rdf="http://www.w3.org/1999/02/22-rdf-syntax-ns#"
   xmlns:svg="http://www.w3.org/2000/svg"
   xmlns="http://www.w3.org/2000/svg"
   xmlns:sodipodi="http://sodipodi.sourceforge.net/DTD/sodipodi-0.dtd"
   xmlns:inkscape="http://www.inkscape.org/namespaces/inkscape"
   viewBox="0 0 48 48"
   id="svg12"
   version="1.1"
   inkscape:version="0.91 r13725"
   sodipodi:docname="liteide0b.svg">
  <metadata
     id="metadata91">
    <rdf:RDF>
      <cc:Work
         rdf:about="">
        <dc:format>image/svg+xml</dc:format>
        <dc:type
           rdf:resource="http://purl.org/dc/dcmitype/StillImage" />
        <dc:title></dc:title>
      </cc:Work>
    </rdf:RDF>
  </metadata>
  <sodipodi:namedview
     pagecolor="#ffffff"
     bordercolor="#666666"
     borderopacity="1"
     objecttolerance="10"
     gridtolerance="10"
     guidetolerance="10"
     inkscape:pageopacity="0"
     inkscape:pageshadow="2"
     inkscape:window-width="1366"
     inkscape:window-height="718"
     id="namedview89"
     showgrid="false"
     showguides="false"
     inkscape:zoom="1"
     inkscape:cx="24"
     inkscape:cy="21.55125"
     inkscape:window-x="0"
     inkscape:window-y="25"
     inkscape:window-maximized="1"
     inkscape:current-layer="svg12">
    <inkscape:grid
       type="xygrid"
       id="grid3419" />
  </sodipodi:namedview>
  <defs
     id="defs14">
    <linearGradient
       id="linearGradient3764"
       x1="1"
       x2="47"
       gradientUnits="userSpaceOnUse"
       gradientTransform="matrix(0,-1,1,0,-1.5e-6,47.999998)">
      <stop
         stop-color="#dfe3dd"
         stop-opacity="1"
         id="stop17" />
      <stop
         offset="1"
         stop-color="#e9ece8"
         stop-opacity="1"
         id="stop19" />
    </linearGradient>
    <clipPath
       id="clipPath-716432804">
      <g
         transform="translate(0,-1004.3622)"
         id="g22">
        <path
           d="m -24 13 c 0 1.105 -0.672 2 -1.5 2 -0.828 0 -1.5 -0.895 -1.5 -2 0 -1.105 0.672 -2 1.5 -2 0.828 0 1.5 0.895 1.5 2 z"
           transform="matrix(15.333333,0,0,11.5,414.99999,878.8622)"
           fill="#1890d0"
           id="path24" />
      </g>
    </clipPath>
    <clipPath
       id="clipPath-724500062">
      <g
         transform="translate(0,-1004.3622)"
         id="g27">
        <path
           d="m -24 13 c 0 1.105 -0.672 2 -1.5 2 -0.828 0 -1.5 -0.895 -1.5 -2 0 -1.105 0.672 -2 1.5 -2 0.828 0 1.5 0.895 1.5 2 z"
           transform="matrix(15.333333,0,0,11.5,414.99999,878.8622)"
           fill="#1890d0"
           id="path29" />
      </g>
    </clipPath>
  </defs>
  <g
     id="g31">
    <path
       d="m 36.31 5 c 5.859 4.062 9.688 10.831 9.688 18.5 c 0 12.426 -10.07 22.5 -22.5 22.5 c -7.669 0 -14.438 -3.828 -18.5 -9.688 c 1.037 1.822 2.306 3.499 3.781 4.969 c 4.085 3.712 9.514 5.969 15.469 5.969 c 12.703 0 23 -10.298 23 -23 c 0 -5.954 -2.256 -11.384 -5.969 -15.469 c -1.469 -1.475 -3.147 -2.744 -4.969 -3.781 z m 4.969 3.781 c 3.854 4.113 6.219 9.637 6.219 15.719 c 0 12.703 -10.297 23 -23 23 c -6.081 0 -11.606 -2.364 -15.719 -6.219 c 4.16 4.144 9.883 6.719 16.219 6.719 c 12.703 0 23 -10.298 23 -23 c 0 -6.335 -2.575 -12.06 -6.719 -16.219 z"
       opacity="0.05"
       id="path33" />
    <path
       d="m 41.28 8.781 c 3.712 4.085 5.969 9.514 5.969 15.469 c 0 12.703 -10.297 23 -23 23 c -5.954 0 -11.384 -2.256 -15.469 -5.969 c 4.113 3.854 9.637 6.219 15.719 6.219 c 12.703 0 23 -10.298 23 -23 c 0 -6.081 -2.364 -11.606 -6.219 -15.719 z"
       opacity="0.1"
       id="path35" />
    <path
       d="m 31.25 2.375 c 8.615 3.154 14.75 11.417 14.75 21.13 c 0 12.426 -10.07 22.5 -22.5 22.5 c -9.708 0 -17.971 -6.135 -21.12 -14.75 a 23 23 0 0 0 44.875 -7 a 23 23 0 0 0 -16 -21.875 z"
       opacity="0.2"
       id="path37" />
  </g>
  <g
     id="g39">
    <path
       d="m 24 1 c 12.703 0 23 10.297 23 23 c 0 12.703 -10.297 23 -23 23 -12.703 0 -23 -10.297 -23 -23 0 -12.703 10.297 -23 23 -23 z"
       fill="url(#linearGradient3764)"
       fill-opacity="1"
       id="path41" />
  </g>
  <g
     id="g43" />
  <g
     id="g45">
    <g
       clip-path="url(#clipPath-716432804)"
       id="g47">
      <g
         transform="translate(1,1)"
         id="g49">
        <g
           opacity="0.1"
           id="g51">
          <!-- color: #e9ece8 -->
          <g
             id="g53" />
        </g>
      </g>
    </g>
  </g>
  <g
     id="g85">
    <path
       d="m 40.03 7.531 c 3.712 4.084 5.969 9.514 5.969 15.469 0 12.703 -10.297 23 -23 23 c -5.954 0 -11.384 -2.256 -15.469 -5.969 4.178 4.291 10.01 6.969 16.469 6.969 c 12.703 0 23 -10.298 23 -23 0 -6.462 -2.677 -12.291 -6.969 -16.469 z"
       opacity="0.1"
       id="path87" />
  </g>
  <g
     id="g4850">
    <g
       id="g4788">
      <g
         id="g67"
         style="fill:#297fb8;fill-opacity:1">
        <g
           clip-path="url(#clipPath-724500062)"
           id="g69"
           style="fill:#297fb8;fill-opacity:1">
          <!-- color: #e9ece8 -->
          <g
             id="g71"
             style="fill:#297fb8;fill-opacity:1">
            <path
               style="fill:#000000;fill-opacity:1;opacity:0.1"
               d="M 13,12.996094 13,13 13,36.996094 13,37 l 7,0 0,-3 -4,0 0,-18 4,0 0,-3 c -2.337235,0.0043 -4.666599,-0.0039 -7,-0.0039 z m 24,0 C 34.666599,12.998536 32.337235,13 30,13 l 0,3 4,0 0,18 -4,0 0,3 7,0 0,-24 0,-0.0039 z M 21,18 19,32 30.429688,32 31,28 24,28 25.429688,18 21,18 Z"
               id="path4878"
               inkscape:connector-curvature="0" />
            <path
               d="M 12,11.996094 12,12 l 0,23.996094 0,0.0039 7,0 0,-2.999997 -4,0 0,-18 4,0 0,-3.000003 c -2.337235,0.0043 -4.666599,-0.0039 -7,-0.0039 z"
               id="path73"
               inkscape:connector-curvature="0"
               sodipodi:nodetypes="ccccccccccc"
               style="fill:#297fb8;fill-opacity:1" />
            <path
               d="m 29,12 0,3.000003 4,0 0,18 -4,0 L 29,36 l 7,0 0,-24 0,-0.0039 C 33.666599,11.998542 31.337235,12 29,12 Z"
               id="path75"
               inkscape:connector-curvature="0"
               sodipodi:nodetypes="cccccccccc"
               style="fill:#297fb8;fill-opacity:1" />
          </g>
        </g>
      </g>
    </g>
    <path
       sodipodi:nodetypes="ccccccc"
       inkscape:connector-curvature="0"
       id="path3346"
       d="m 18,31 2,-14 4.429,0 -1.429,10 7,0 -0.57,4 z"
       style="fill:#287eb7" />
  </g>
</svg>

<svg xmlns="http://www.w3.org/2000/svg" viewBox="0 0 48 48"><defs><linearGradient id="linearGradient3764" x1="1" x2="47" gradientUnits="userSpaceOnUse" gradientTransform="matrix(0,-1,1,0,-1.5e-6,47.999998)"><stop stop-color="#dfe3dd" stop-opacity="1"/><stop offset="1" stop-color="#e9ece8" stop-opacity="1"/></linearGradient><clipPath id="clipPath-716432804"><g transform="translate(0,-1004.3622)"><path d="m -24 13 c 0 1.105 -0.672 2 -1.5 2 -0.828 0 -1.5 -0.895 -1.5 -2 0 -1.105 0.672 -2 1.5 -2 0.828 0 1.5 0.895 1.5 2 z" transform="matrix(15.333333,0,0,11.5,414.99999,878.8622)" fill="#1890d0"/></g></clipPath><clipPath id="clipPath-724500062"><g transform="translate(0,-1004.3622)"><path d="m -24 13 c 0 1.105 -0.672 2 -1.5 2 -0.828 0 -1.5 -0.895 -1.5 -2 0 -1.105 0.672 -2 1.5 -2 0.828 0 1.5 0.895 1.5 2 z" transform="matrix(15.333333,0,0,11.5,414.99999,878.8622)" fill="#1890d0"/></g></clipPath></defs><g><path d="m 36.31 5 c 5.859 4.062 9.688 10.831 9.688 18.5 c 0 12.426 -10.07 22.5 -22.5 22.5 c -7.669 0 -14.438 -3.828 -18.5 -9.688 c 1.037 1.822 2.306 3.499 3.781 4.969 c 4.085 3.712 9.514 5.969 15.469 5.969 c 12.703 0 23 -10.298 23 -23 c 0 -5.954 -2.256 -11.384 -5.969 -15.469 c -1.469 -1.475 -3.147 -2.744 -4.969 -3.781 z m 4.969 3.781 c 3.854 4.113 6.219 9.637 6.219 15.719 c 0 12.703 -10.297 23 -23 23 c -6.081 0 -11.606 -2.364 -15.719 -6.219 c 4.16 4.144 9.883 6.719 16.219 6.719 c 12.703 0 23 -10.298 23 -23 c 0 -6.335 -2.575 -12.06 -6.719 -16.219 z" opacity="0.05"/><path d="m 41.28 8.781 c 3.712 4.085 5.969 9.514 5.969 15.469 c 0 12.703 -10.297 23 -23 23 c -5.954 0 -11.384 -2.256 -15.469 -5.969 c 4.113 3.854 9.637 6.219 15.719 6.219 c 12.703 0 23 -10.298 23 -23 c 0 -6.081 -2.364 -11.606 -6.219 -15.719 z" opacity="0.1"/><path d="m 31.25 2.375 c 8.615 3.154 14.75 11.417 14.75 21.13 c 0 12.426 -10.07 22.5 -22.5 22.5 c -9.708 0 -17.971 -6.135 -21.12 -14.75 a 23 23 0 0 0 44.875 -7 a 23 23 0 0 0 -16 -21.875 z" opacity="0.2"/></g><g><path d="m 24 1 c 12.703 0 23 10.297 23 23 c 0 12.703 -10.297 23 -23 23 -12.703 0 -23 -10.297 -23 -23 0 -12.703 10.297 -23 23 -23 z" fill="url(#linearGradient3764)" fill-opacity="1"/></g><g><g clip-path="url(#clipPath-716432804)"><g transform="translate(1,1)"><g opacity="0.1"><!-- color: #e9ece8 --></g></g></g></g><g><path d="m 40.03 7.531 c 3.712 4.084 5.969 9.514 5.969 15.469 0 12.703 -10.297 23 -23 23 c -5.954 0 -11.384 -2.256 -15.469 -5.969 4.178 4.291 10.01 6.969 16.469 6.969 c 12.703 0 23 -10.298 23 -23 0 -6.462 -2.677 -12.291 -6.969 -16.469 z" opacity="0.1"/></g><g><g><g fill="#297fb8" fill-opacity="1"><g clip-path="url(#clipPath-724500062)"><!-- color: #e9ece8 --><g><path d="m 13 12.996 0 0.004 0 23.996 0 0.004 l 7 0 0 -3 -4 0 0 -18 4 0 0 -3 c -2.337 0.004 -4.667 -0.004 -7 -0.004 z m 24 0 c -2.333 0.002 -4.663 0.004 -7 0.004 l 0 3 4 0 0 18 -4 0 0 3 7 0 0 -24 0 -0.004 z m -16 5 -2 14 11.43 0 0.57 -4 -7 0 1.43 -10 -4.43 0" opacity="0.1" fill="#000"/><path d="m 12 11.996 0 0.004 l 0 23.996 0 0.004 7 0 0 -3 -4 0 0 -18 4 0 0 -3 c -2.337 0.004 -4.667 -0.004 -7 -0.004 z"/><path d="m 29 12 0 3 4 0 0 18 -4 0 l 0 3 l 7 0 0 -24 0 -0.004 c -2.333 0.002 -4.663 0.004 -7 0.004"/></g></g></g></g><path d="m 18 31 2 -14 4.429 0 -1.429 10 7 0 -0.57 4 z" fill="#287eb7"/></g></svg>
